X: 898
T: the Boys of Bluehill   #2
R: hornpipe
%S: s:2 b:9(5+4)
B: Francis O'Neill: "The Dance Music of Ireland" (1907) #898
Z: Frank Nordberg - http://www.musicaviva.com
F: http://www.musicaviva.com/abc/tunes/ireland/oneill-1001/0898/oneill-1001-0898-1.abc
N: Compacted via repeats and multiple endings [JC]
N: Compacted by using labels and play order [JC]
P: Play (A1A2)x2 + (BA2)x2
M: 2/4
L: 1/16
K: D
(FG) "^A"|: BAFA D2(FA) | BABd e2(de) | faaf egfe |[1,3 dfed B2(dB) :|[2,4 d2dd d2 :|
"^B"|:  (fg) |  afdf a2(gf) | gfga b2(ag) | faaf egfe | dfed B2"^->A2"(dB) |]
